X: 2966
T: Basil The Retriever
R: jig
M: 6/8
K: Bminor
FBB BAB|dcB cBA|GBB BAB|dcB cBA|
AGA cBc|eaf edc|dBB gBf|edc B3:|
bBB aBf|BbB aBf|ecB Ace|agf edc|
BAB cBc|dcd ede|fBB gBf|edc B3:|

